X:1
T:Title
%%score { ( 1 3 6 ) | ( 2 4 5 ) }
L:1/8
M:6/4
K:Db
V:1 treble nm="Grand Piano"
V:3 treble 
V:6 treble 
V:2 bass 
V:4 bass 
V:5 bass 
V:1
 z6 z4[Q:1/4=111] A2 | .A6 .F6 | .A6 ._G6 | .c6 .A6 |[M:5/4] [B,G]4 [A,DF]2 [A,DF]4 | %5
[M:1/4] [=A,EF]2 |[M:6/4] d4 d2 c4 c2 |[M:7/4] B4 z2 z2 z2 z4 |[M:6/4] .=G6 .A6 | %9
 [Ec]2 [Ed]2 [E=d]2 [EGe]6 |[M:1/4] [EAc]2 |[M:6/4] .[DFAd]6 G4 [=DF]2 | F2 E2 d2 c4 B2 | z6 .A6 | %14
 A12 | [FA]4 [FA]2 [FB]4 [FB]2 | [Fc]4 [Fc]2 [Fd]4 [Fe]2 | [Gd]4 [Gc]2 c4 _c2 | c12 | [ce]6 [Bd]6 | %20
 .[Ac]12 | [Fd]6[K:bass][K:treble] _F6 | A2- [CA-]2 [FA-]2 [FA]6 | F6 z6 | .G12 | A6 z6 | B12 | %27
 B6 z6 | .c12 | d6 .d6 | e12 |[M:15/8] f6 z3 z6 |[M:6/4] z6 .g6 |[M:15/8] [Ag]3- [Ag]6 [Gc]6 | %34
[M:5/4] [Fd]2- [Fd]2- [Fd]6 |] %35
V:2
 z12 | z2 [F,D]2 [A,D]2 z2 A,2 [F,D]2 | z2 A,2 [_F,B,D]2 z2 A,2 [A,,E,A,]2 | %3
 z2 [E,A,C]2 [E,A,C]2 z2 A,2 A,,2 |[M:5/4] z2 D2 D,2 D,4 |[M:1/4] C,2 |[M:6/4] z4 [F,B,]2 z6 | %7
[M:7/4] z2 [G,D]2 [B,,G,]2 [D,F,D]6 [=D,F,B,]2 |[M:6/4] z2 B,2 [D,A,B,]2 z2 A,2 [B,,A,]2 | %9
 [A,,A,]2 [B,,=G,]2 [_C,A,]2 [=C,A,]6 |[M:1/4] [A,,A,][G,,G,] | %11
[M:6/4] [F,,F,]2 [D,F,]2 [B,,F,B,]2 [B,E]2 A,2 D,2 | %12
 [G,B,D]2 [G,B,D]2[K:treble] [=G,B,E]2 [G,C_F]4 [G,DF]2 | [A,DF]4 [A,DF]2 [CE]2 D2 [A,=DF]2 | %14
 G6 z6 | [D,D]4 [D,D]2 [D,A,]4 [D,A,]2 | [D,A,]4 [D,A,]2 [D,A,]4 [D,A,]2 | %17
 [E,A,]4 [E,E]2[K:treble] [A,EG]4 [A,=DG]2 | [A,EG]4 [A,E]2 [A,E]6 | A,4 A,2 A,4 A,2 | %20
 A,4 A,2 A,2[K:treble] [A,=D]2 [A,EG]2 | .[D,D]6 [D,=G,]4 [D,G,]2 | D,4 [D,B,]2 [D,A,]6 | z6 .A,6 | %24
 .[A,C]6 .A,6 | [A,D]2 _C2 C2 D2- [E,B,D]2 [F,CD]2 | [B,D]2 D2 D2 F,6 | %27
 E,4 E,2 z2[K:treble] =A2 E,2 | [A,EA]4 [A,E]2 E2 =D2[K:bass] G,2 | %29
 F,2 F,2 F,2 E,2 A,2[K:treble] [B,E=G]2 | [A,CA]2 [A,E]2 [A,D]2 [A,C]6 | %31
[M:15/8][K:bass] [D,D]3- [D,D][K:treble] D2 [B,=DA]3- [B,DA]6 |[M:6/4] .[B,=D]6[K:bass] z6 | %33
[M:15/8] [A,C]3- [A,C]6 [A,,A,]6 |[M:5/4] [D,A,]2- [D,A,]2- [D,A,]6 |] %35
V:3
 x12 | z2 F2 F2 z2 D2 A2 | z2 D2 =G2 z2 C2 [C_G]2 | z2 G2 [GB]2 z2 C2 [A,CE]2 |[M:5/4] x10 | %5
[M:1/4] x2 |[M:6/4] z2 .F3 F z2 .F3 E |[M:7/4] z2 G2 [DGd]2 A6 A2 |[M:6/4] z2 E2 E2 z2 E2 [EB]2 | %9
 x12 |[M:1/4] x2 |[M:6/4] z2 A,2 [=DFA]2 z2 C2 A,_C | x12 | A4 A2 z2 _F2 A2 | z6 G6 | x12 | x12 | %17
 x12 | z4 G2 G6 | x12 | E4 E2 E2 _c2 =c2 | z4[K:bass] [D,A,]2[K:treble] c4 B2 | .[A,F]6 z6 | %23
 z4 D2 F2 E2 F2 | z4 C2 z2 F2 G2 | z2 D2 D2 A2 =G2 A2 | z2 G2 G2 [=DA]6 | %27
 [E=G]4 [EG]2 .[EGB]4 [EGB]2 | z4 A2 z2 _c2 [EA=c]2 | [DA]2 [DA]2 [DA]2 [EG]2- [EGc]2 d2 | %30
 z2 c2 B2 A6 |[M:15/8] A3- A A2 f3- f6 |[M:6/4] f2 e2 [Bf]2 B2- [Bf]2 [Be]2 |[M:15/8] x15 | %34
[M:5/4] x10 |] %35
V:4
 x12 | D,6 D,6 | .F,6 .E,6 | A,,6 .A,,6 |[M:5/4] D,4 z2 z4 |[M:1/4] x2 | %6
[M:6/4] z2 .[F,B,D]3 D [F,,F,]2 [F,=A,C]2 [F,A,]2 |[M:7/4] G,,4 z2 z2 z2 z4 |[M:6/4] .E,6 .C,6 | %9
 x12 |[M:1/4] x2 |[M:6/4] z6 .E,6 | x4[K:treble] x8 | z6 .A,6 | [A,CE]12 | x12 | x12 | %17
 x6[K:treble] x6 | x12 | x12 | x8[K:treble] x4 | x12 | x12 | [D,A,D]4 [D,A,]2 [D,D]2 C,2 [D,A,D]2 | %24
 E,4- [E,-A,]2 E,2 =D,2 [E,A,C]2 | F,6 .[F,_C]6 | G,6 z6 | z6 .E,6[K:treble] | z6 .A,6[K:bass] | %29
 x10[K:treble] x2 | x12 |[M:15/8][K:bass] x4[K:treble] x11 | %32
[M:6/4] A2- [G,EA]2[K:bass] [F,=D]2 [E,E]2 [F,D]2 [G,E]2 |[M:15/8] x15 |[M:5/4] x10 |] %35
V:5
 x12 | x12 | x12 | x12 |[M:5/4] x10 |[M:1/4] x2 |[M:6/4] B,,6 z6 |[M:7/4] x14 |[M:6/4] x12 | x12 | %10
[M:1/4] x2 |[M:6/4] x12 | x4[K:treble] x8 | x12 | x12 | x12 | x12 | x6[K:treble] x6 | x12 | x12 | %20
 x8[K:treble] x4 | x12 | x12 | x12 | x12 | x12 | x12 | x8[K:treble] x4 | x10[K:bass] x2 | %29
 x10[K:treble] x2 | x12 |[M:15/8][K:bass] x4[K:treble] x11 |[M:6/4] x4[K:bass] x8 |[M:15/8] x15 | %34
[M:5/4] x10 |] %35
V:6
 x12 | x12 | x12 | x12 |[M:5/4] x10 |[M:1/4] x2 |[M:6/4] x12 |[M:7/4] x14 |[M:6/4] x12 | x12 | %10
[M:1/4] x2 |[M:6/4] x12 | x12 | x12 | x12 | x12 | x12 | x12 | x12 | x12 | x12 | %21
 x4[K:bass] x2[K:treble] x6 | x12 | x12 | z6 .C6 | x12 | x12 | x12 | z6 .A6 | x12 | x12 | %31
[M:15/8] x15 |[M:6/4] x12 |[M:15/8] x15 |[M:5/4] x10 |] %35

